X: 58
T: No_48_Modern_Klokali_Song.krn
N: Derived from No_48_Modern_Klokali_Song.krn
%%abc-version 2.0
%%abcx-abcm2ps-target-version 5.9.1 (29 Sep 2008)
%%abc-creator hum2abc beta
%%abcx-conversion-date 2019/03/15 08:36:13
%%humdrum-veritas 1379297797
%%humdrum-veritas-data 4259616944
%%linebreak <none>
%%barnumbers 0
L: 1/8
M: 2/4
%%staves {1 2}
V: 1 clef=bass
V: 2 clef=bass
K: Bb
[V:1] [K:clef=bass][M:2/4]=E4- ||  
[V:2] [K:clef=bass][M:2/4]G,,G,, !accent!G,, z ||  
[V:1] [M:3/4]E4F=E ||  
[V:2] [M:3/4]z6 ||  
[V:1] [M:2/4]=EDz2 | 
[V:2] [M:2/4]G,,G,, !accent!G,, z | 
[V:1] D2D2 | 
[V:2] G,,G,, !accent!G,, z | 
[V:1] D2=ED | 
[V:2] G,,G,, !accent!G,, z | 
[V:1] DC B,C ||  
[V:2] G,,G,, !accent!G,, z ||  
[V:1] [M:3/4]B,4z2 ||  
[V:2] [M:3/4]z6 ||  
[V:1] [M:2/4]D2D2 | 
[V:2] [M:2/4]G,,G,, !accent!G,, z | 
[V:1] DC B,F, | 
[V:2] G,,G,, !accent!G,, z | 
[V:1] B,2B, z | 
[V:2] G,,G,, !accent!G,, z | 
[V:1] D2D^C | 
[V:2] G,,G,, !accent!G,, z | 
[V:1] =ED D^C | 
[V:2] G,,G,, !accent!G,, z | 
[V:1] D2ED | 
[V:2] G,,G,, !accent!G,, z | 
[V:1] DC B,C | 
[V:2] G,,G,, !accent!G,, z | 
[V:1] B,4 | 
[V:2] G,,G,, !accent!G,, z | 
[V:1] B,2z2 | 
[V:2] G,,G,, !accent!G,, z | 
[V:1] CB, F,B, | 
[V:2] G,,G,, !accent!G,, z | 
[V:1] B,2z2 |]  
[V:2] G,,G,, !accent!G,, z |]  



